!!!COM: Haydn, Franz Joseph
!!!OTL: String Quartet in C major
!!!OPS: Opus 1
!!!ONM: No. 6
!!!OMD: Menuetto I
!!!OMV: 2
!!!SCT: H III:6
!!!SCA: Thematisch-bibliographisches Werkevererzeichnis (A. van Hoboken)
!!!YOR: Bremner Edition, 1772
!!!ENC: Frances Bennion
!!!CDT: 1732/3/31/-1809/5/31/
!!!CNT: Oesterreich
!!!YEC: Copyright (c) 1994, 2000 Center for Computer Assisted Research in the Humanities
!!!YEM: Rights to all derivative editions reserved.
!!!YEM: Refer to licensing agreement for further details.
!!!YEN: United States of America
**kern	**kern	**kern	**kern
*k[]	*k[]	*k[]	*k[]
*C:	*C:	*C:	*C:
*clefF4	*clefC3	*clefF	*clefF
*M3/4	*M3/4	*M3/4	*M3/4
2c	2e	2cc	2cc
4G	4g	12b	12dd
.	.	12cc	12ee
.	.	12dd	12ff
=2	=2	=2	=2
4C	4c	8dd	8ff
.	.	8cc	8ee
2r	2r	8ff	8aa
.	.	8ee	8gg
.	.	4ee	4gg
=3	=3	=3	=3
4r	4r	[2.cc	4ccc
4E	4e	.	8.ccc
.	.	.	16bb
4C	4c	.	8.aa
.	.	.	16gg
=4	=4	=4	=4
4D	4d	4cc]	2ff
4GG	4G	4b	.
4C	4c	4cc	4ee
=5	=5	=5	=5
2C	2c	2c	2.r
4G	12d	12B	.
.	12e	12c	.
.	12f	12d	.
=6	=6	=6	=6
4C	8f	8d	2.r
.	8e	8c	.
2r	8a	8f	.
.	8g	8e	.
.	4g	4e	.
=7	=7	=7	=7
4c	8.g	4e	2.r
.	16g#	.	.
4F	8.a	8.f	.
.	16g	16e	.
4F	8.f	8.d	.
.	16e	16c	.
=8	=8	=8	=8
4G	2d	2B	2.r
4D	.	.	.
4GG	4r	4r	.
=9	=9	=9	=9
2.r	2.r	2.r	16ff#
.	.	.	8.gg
.	.	.	16bb
.	.	.	8.gg
.	.	.	16ff#
.	.	.	8.ee
=10	=10	=10	=10
2F#	2d	2a	4.dd
.	.	.	8cc
4G	4d	4g	4b
=11	=11	=11	=11
2.r	2.r	2.r	12gg
.	.	.	12ff#
.	.	.	12gg
.	.	.	12bb
.	.	.	12aa
.	.	.	12gg
.	.	.	12ff#
.	.	.	12ee
.	.	.	12dd
=12	=12	=12	=12
2F#	2d	2a	4.dd
.	.	.	8cc
4G	4d	4g	4b
=13	=13	=13	=13
4c	4r	8.c	8.a
.	.	16d	16b
4d	4d	4B	4g
4D	4d	4A	4f#
=14	=14	=14	=14
4G	4g	2G	2g
4D	4d	.	.
4GG	4G	4r	4r
=15	=15	=15	=15
4A	8r	8r	2gg
.	8c#	8e	.
4A	8e	8g	.
.	8c#	8e	.
4A	8e	8g	8eee
.	8c#	8e	8gg
=16	=16	=16	=16
4D	8d	8f	4ff
.	8f	8a	.
2r	8e	8g	2r
.	8d	8f	.
.	8c#	8e	.
.	8d	8f	.
=17	=17	=17	=17
4G	8r	8r	2ff
.	8B	8d	.
4G	8d	8f	.
.	8B	8d	.
4G	8d	8f	8ddd
.	8B	8d	8ff
=18	=18	=18	=18
4C	8c	8e	4ee
.	8e	8g	.
2r	8d	8f	2r
.	8c	8e	.
.	8B	8d	.
.	8c	8e	.
=19	=19	=19	=19
4r	4r	4r	4.aa
4F	4f	4cc	.
.	.	.	16bb
.	.	.	16ccc
4E	4e	4cc	4gg
=20	=20	=20	=20
4r	4r	4r	4.ff
4D	4d	4b	.
.	.	.	16gg
.	.	.	16aa
4C	4c	4cc	4ee
=21	=21	=21	=21
4F	4f	4a	8ee
.	.	.	8dd
2r	2r	2r	12aa
.	.	.	12gg
.	.	.	12ff
.	.	.	12ee
.	.	.	12dd
.	.	.	12cc
=22	=22	=22	=22
4G	4g	2d	2b
8G	8g	.	.
8F	8f	.	.
8E	8e	4r	4r
8D	8d	.	.
=23	=23	=23	=23
2C	2e	2cc	2cc
4G	4g	12b	12dd
.	.	12cc	12ee
.	.	12dd	12ff
=24	=24	=24	=24
4C	4c	8dd	8ff
.	.	8cc	8ee
2r	2r	8ff	8aa
.	.	8ee	8gg
.	.	4ee	4gg
=25	=25	=25	=25
4r	4r	[2.cc	4ccc
4E	4e	.	8.ccc
.	.	.	16bb
4C	4c	.	8.aa
.	.	.	16gg
=26	=26	=26	=26
4D	4d	4cc]	2ff
4GG	4G	4b	.
4C	4c	4cc	4ee
=27	=27	=27	=27
2C	2c	2c	2.r
4G	12d	12B	.
.	12e	12c	.
.	12f	12d	.
=28	=28	=28	=28
4C	8f	8d	2.r
.	8e	8c	.
2r	8a	8f	.
.	8g	8e	.
.	4g	4e	.
=29	=29	=29	=29
4c	8.g	4e	2.r
.	16g#	.	.
4F	8.a	8.f	.
.	16g	16e	.
4F	8.f	8.d	.
.	16e	16c	.
=30	=30	=30	=30
4G	2d	2B	2.r
4D	.	.	.
4GG	4r	4r	.
=31	=31	=31	=31
2.r	2.r	2.r	16ff#
.	.	.	8.gg
.	.	.	16aa
.	.	.	8.gg
.	.	.	16ff#
.	.	.	8.gg
=32	=32	=32	=32
2B	2d	2g	4.dd
.	.	.	16ee
.	.	.	16ff
4c	4c	4g	4ee
=33	=33	=33	=33
2.r	2.r	2.r	12gg
.	.	.	12aa
.	.	.	12gg
.	.	.	12ccc
.	.	.	12bb
.	.	.	12aa
.	.	.	12gg
.	.	.	12ff
.	.	.	12ee
=34	=34	=34	=34
2B	2d	2g	4.dd
.	.	.	16ee
.	.	.	16ff
4c	4c	4g	8.ee
.	.	.	16ff
=35	=35	=35	=35
4E	4e	4cc	8gg
.	.	.	8ee
4G	4g	4e	4cc
4GG	4G	4d	4b
=36	=36	=36	=36
2C	4c	2c	2cc
.	2r	.	.
4r	.	4r	4r
=37	=37	=37	=37
4F	2.r	4a	4ff
4F	.	4a	4ff
4F	.	4a	4ff
=38	=38	=38	=38
4F	2.r	12cc	12aa
.	.	12b-	12gg
.	.	12a	12ff
4F	.	4a	4ff
4F	.	4r	4r
=39	=39	=39	=39
4F	4dd	4b-	2.r
4F	4dd	4b-	.
4F	4dd	4b-	.
=40	=40	=40	=40
4F	12ff	12dd	2.r
.	12ee	12cc	.
.	12dd	12b-	.
4F	4cc	4a	.
4F	4r	4r	.
=41	=41	=41	=41
2F	2d	4g	4b-
.	.	4g	4b-
4E	4c	8.r	8.r
.	.	16g	16cc
=42	=42	=42	=42
2.F	4c	8g	8b-
.	.	8f	8a
.	2r	4f	4a
.	.	4r	8.r
.	.	.	16dd
=43	=43	=43	=43
4A	4f	4cc	4cc
4c	4A	4f	4f
4C	4G	4e	4e
=44	=44	=44	=44
4F	4F	4f	4f
4C	2r	2r	2r
4FF	.	.	.
=45	=45	=45	=45
4C	2.r	4g	4ee
4c	.	4g	4ee
4B-	.	4g	4ee
=46	=46	=46	=46
4A	2.r	12a	12ff
.	.	12g	12gg
.	.	12f	12aa
4r	.	4f	4aa
4F	.	4r	4r
=47	=47	=47	=47
4C	4g	4e	2.r
4c	4g	4e	.
4B-	4g	4e	.
=48	=48	=48	=48
4A	12a	12f	2.r
.	12b-	12g	.
.	12cc	12a	.
4r	4cc	4a	.
4F	4r	4r	.
=49	=49	=49	=49
4B-	2.r	4bb-	4ddd
2r	.	4bb-	4ddd
.	.	4bb-	4ddd
=50	=50	=50	=50
4c	2.r	4b-	12ee
.	.	.	12ff
.	.	.	12gg
4F	.	4a	4ff
4r	.	4r	4r
=51	=51	=51	=51
4r	2.r	4gg	4bb-
4c	.	4gg	4bb-
4C	.	8.r	8.r
.	.	16aa	16ccc
=52	=52	=52	=52
4r	2.r	8gg	8bb-
.	.	8ff	8aa
4F	.	4ff	4aa
4FF	.	4r	4r
=53	=53	=53	=53
2D	4b-	2f	2r
.	4b-	.	.
4E	8.r	4g	4c
.	16cc	.	.
=54	=54	=54	=54
2F	8b-	8g	4c
.	8a	8f	.
.	4a	4f	4..r
4A	4r	4r	.
.	.	.	16ff
=55	=55	=55	=55
4B-	4f	8b-	8dd
.	.	16a	16cc
.	.	16g	16b-
4c	4cc	4f	4a
4C	4c	4e	4g
=56	=56	=56	=56
4F	4f	4f	4f
4FF	2r	2r	2r
4r	.	.	.
==	==	==	==
*-	*-	*-	*-
!!!RWG1: This file contains only pitch and duration data.
!!!RWG2: Transposing instruments are not transposed.
!!!RWG3: Spines may have incompatible meters.
!!!RWG4: Durations of rests and tied notes may be interpreted.
!!!RWG: Key is interpreted using the Humdrum key tool.
!!!GTL: 10 Divertimentos
!!!AFT: stage1
!!!END: 1997/04/15
!!!KEY: 686737934
!!!EMD: Converted from MuseData to Humdrum Dec 16, 2000, by Andreas Kornstaedt using muse2kern.
!!!EMD: Manual editing by Craig Sapp, Nov 2001
